X:1
T:A Virgin Did Come
T:G. H. Gregory
T:A Virgin Did Come
T:Public Domain
T:Public Domain
C:G. H. Gregory
Z:Public Domain
%%score ( 1 2 ) ( 3 4 )
L:1/8
M:3/4
K:Eb
V:1 treble 
V:2 treble 
V:3 bass 
V:4 bass 
V:1
 [EB]2 | [EB]2 [Ee]2 [EG]2 | [EB]4 [DB][DB] | [EB]2 [CE]2 [DF]2 | [EG]4 [F=A]2 | %5
w: 1.~A|vir- gin did|come fro- m|low- li- est|home, And|
w: 2.~That|Babe was a|king, mys- tic|gifts, lo, they|bring, Sure|
w: 3.~Ac-|comp- lished their|hope, the- ir|trea- sures they|ope— Gold,|
w: 4.~No|tok- ens of|state round that|roy- al Babe|wait, Seeming|
 [FB]2 [=Ac]2 [Bd]2 | [Gd]2 [Gc]2 [GB]2 | [FB]2 [F=A]2 [Ac]2 | B4 [FB]2 | [EB]2 [Ee]2 [EG]2 | %10
w: shel- ter she|fain in a|man- ger would|find; For|was the inn,|
w: tok- ens they|were of some|great one to|be; To|le- hem led,|
w: frank- in- cense,|myrrh, to that|In- fant they|brought, Gifts|ly and rare,|
w: least, and yet|great- est, of|mon- archs was|He; But~in|er- ence low,|
 [Ec]4 [Ac][Gc] | [Fc]2 F2 G2 | [FA]4 [GB]2 | [Ac]2 [Bd]2 [Be]2 | [FB]2 [FA]2 [EG]2 | %15
w: and no room|was with- in,|where to|the stalls the|mute ox- en|
w: East- ern sag-|es have sped|afar “The|de- sire of|all na- tions”|
w: full of mean-|ing they were,|not yet|un- veiled were|the great truths|
w: prince- ly Ma-|gi did bow,|though they|di- vined all|His true dig-|
 [EB]2 [CE]2 [DF]2 | E4 ||"^Refrain" [DF][EG] | [EA]2 [EA]2 (GF) | B,2 z A [EB]2 | %20
w: they bind. *|||||
w: to see. *|||||
w: they taught. *|||||
w: ni- ty. *|||||
 [Ec]2 [Ad]2 [Ge]2 | [Fd]>[Ec] [DB]2 [DB]2 | [Ee]2 [EB]2 [EG]2 | [EB]2 [EG]2 [CE]2 | %24
w: ||||
w: ||||
w: ||||
w: ||||
 [B,F]2 [B,D]2 [DF]2 | E4 |] %26
w: ||
w: ||
w: ||
w: ||
V:2
 x2 | x6 | x6 | x6 | x6 | x6 | x6 | x6 | B4 x2 | x6 | x6 | x2 F2 x2 | x6 | x6 | x6 | x6 | E4 || %17
w: ||||||||full|||Save||||||
w: ||||||||Beth-|||From||||||
w: ||||||||cost-|||Though||||||
w: ||||||||rev-|||As||||||
 x2 | x4 B,2 | G3 E2 x | x6 | x6 | x6 | x6 | x6 | E4 |] %26
w: |||||||||
w: |||||||||
w: |||||||||
w: |||||||||
V:3
 [E,G,]2 | [E,G,]2 [E,G,]2 [E,B,]2 | [F,A,]4 [F,A,]2 | [G,B,]2 [A,C]2 [F,A,]2 | [E,B,]4 [E,C]2 | %5
w: ~|~ ~ ~|~ ~|~ ~ ~|~ ~|
 [D,B,]2 [C,E]2 [B,,F]2 | [E,F]2 [E,E]2 [=E,D]2 | [F,D]2 [F,C]2 [F,E]2 | [B,,D]4 (G,F,) | %9
w: ~ ~ ~|~ ~ ~|~ ~ ~|~ ~ *|
 [G,E]2 [G,E]2 [E,_D]2 | [A,C]4 [C=E][B,E] | [A,F]2 [A,C]2 C2 | [F,C]4 [E,E]2 | %13
w: ~ ~ ~|~ ~ ~|~ ~ ~|~ ~|
 [A,E]2 [A,F]2 [G,E]2 | [D,F]2 [D,B,]2 [D,B,]2 | [B,,G,]2 [B,,G,]2 [B,,A,]2 | [E,G,]4 || %17
w: ~ ~ ~|~ ~ ~|~ ~ O|how|
 [B,,B,][E,B,] | [C,A,]2 [C,A,]2 [D,A,]2 | (G,2 z) F, [G,B,]2 | A,2 F,2 [E,B,]2 | %21
w: won- drous|the love and|the deep hu-|* * ty|
 B,>B, B,2 (B,A,) | [G,B,]2 [G,B,]2 [E,B,]2 | [G,B,]2 [G,,B,]2 [A,,A,]2 | %24
w: Him who was laid *|for me. *||
 [B,,G,]2 [B,,F,]2 [B,,A,]2 | [E,G,]4 |] %26
w: ||
V:4
 x2 | x6 | x6 | x6 | x6 | x6 | x6 | x6 | x4 B,2 | x6 | x6 | x4 C2 | x6 | x6 | x6 | x6 | x4 || x2 | %18
w: ||||||||~|||~|||||||
 x6 | E,3 B,2 x | A,4 x2 | B,>B, B,2 B,2 | x6 | x6 | x6 | x4 |] %26
w: |mil- i-|Of|in the man- ger|||||

